X: 11373
Q: "Moderate."
M: 6/8
L: 1/8
K: B
|:\
d2c B2A | G2E D2 :|\
d2d c2d | (efg) fdf |
g2f e2d | c2B ^AHfe |\
d2B B2B | (B>c)d B2z |\
fed c3 | dcB ^A2z |\
f2z g2z | fed c2(f/e/) |\
d2B B2B | B>cd B2z |]


